hosted/assets/icon/widgets/dark-mode/plotly-javascript-generic.svg

<svg width="50" height="50" viewBox="0 0 50 50" fill="none" xmlns="http://www.w3.org/2000/svg">
<rect x="5" y="23" width="5" height="15" rx="2.5" fill="#4A6BB7"/>
<rect x="25" y="22" width="5" height="16" rx="2.5" fill="#4A6BB7"/>
<rect x="15" y="13" width="5" height="25" rx="2.5" fill="#4A6BB7"/>
<rect x="34" y="13" width="5" height="25" rx="2.5" fill="#4A6BB7"/>
<path fill-rule="evenodd" clip-rule="evenodd" d="M4 25.5789C4 23.6023 5.567 22 7.5 22C9.433 22 11 23.6023 11 25.5789V35.4211C11 37.3977 9.433 39 7.5 39C5.567 39 4 37.3977 4 35.4211V25.5789ZM7.5 23.7895C6.5335 23.7895 5.75 24.5906 5.75 25.5789V35.4211C5.75 36.4094 6.5335 37.2105 7.5 37.2105C8.4665 37.2105 9.25 36.4094 9.25 35.4211V25.5789C9.25 24.5906 8.4665 23.7895 7.5 23.7895Z" fill="white"/>
<path fill-rule="evenodd" clip-rule="evenodd" d="M4 16.5C4 14.567 5.567 13 7.5 13C9.433 13 11 14.567 11 16.5C11 18.433 9.433 20 7.5 20C5.567 20 4 18.433 4 16.5ZM7.5 14.75C6.5335 14.75 5.75 15.5335 5.75 16.5C5.75 17.4665 6.5335 18.25 7.5 18.25C8.4665 18.25 9.25 17.4665 9.25 16.5C9.25 15.5335 8.4665 14.75 7.5 14.75Z" fill="white"/>
<path fill-rule="evenodd" clip-rule="evenodd" d="M4 7.5C4 5.567 5.567 4 7.5 4C9.433 4 11 5.567 11 7.5C11 9.433 9.433 11 7.5 11C5.567 11 4 9.433 4 7.5ZM7.5 5.75C6.5335 5.75 5.75 6.5335 5.75 7.5C5.75 8.4665 6.5335 9.25 7.5 9.25C8.4665 9.25 9.25 8.4665 9.25 7.5C9.25 6.5335 8.4665 5.75 7.5 5.75Z" fill="white"/>
<path fill-rule="evenodd" clip-rule="evenodd" d="M14 7.5C14 5.567 15.567 4 17.5 4C19.433 4 21 5.567 21 7.5C21 9.433 19.433 11 17.5 11C15.567 11 14 9.433 14 7.5ZM17.5 5.75C16.5335 5.75 15.75 6.5335 15.75 7.5C15.75 8.4665 16.5335 9.25 17.5 9.25C18.4665 9.25 19.25 8.4665 19.25 7.5C19.25 6.5335 18.4665 5.75 17.5 5.75Z" fill="white"/>
<path fill-rule="evenodd" clip-rule="evenodd" d="M24 7.5C24 5.567 25.567 4 27.5 4C29.433 4 31 5.567 31 7.5C31 9.433 29.433 11 27.5 11C25.567 11 24 9.433 24 7.5ZM27.5 5.75C26.5335 5.75 25.75 6.5335 25.75 7.5C25.75 8.4665 26.5335 9.25 27.5 9.25C28.4665 9.25 29.25 8.4665 29.25 7.5C29.25 6.5335 28.4665 5.75 27.5 5.75Z" fill="white"/>
<path fill-rule="evenodd" clip-rule="evenodd" d="M33 7.5C33 5.567 34.567 4 36.5 4C38.433 4 40 5.567 40 7.5C40 9.433 38.433 11 36.5 11C34.567 11 33 9.433 33 7.5ZM36.5 5.75C35.5335 5.75 34.75 6.5335 34.75 7.5C34.75 8.4665 35.5335 9.25 36.5 9.25C37.4665 9.25 38.25 8.4665 38.25 7.5C38.25 6.5335 37.4665 5.75 36.5 5.75Z" fill="white"/>
<path fill-rule="evenodd" clip-rule="evenodd" d="M24 16.5C24 14.567 25.567 13 27.5 13C29.433 13 31 14.567 31 16.5C31 18.433 29.433 20 27.5 20C25.567 20 24 18.433 24 16.5ZM27.5 14.75C26.5335 14.75 25.75 15.5335 25.75 16.5C25.75 17.4665 26.5335 18.25 27.5 18.25C28.4665 18.25 29.25 17.4665 29.25 16.5C29.25 15.5335 28.4665 14.75 27.5 14.75Z" fill="white"/>
<path fill-rule="evenodd" clip-rule="evenodd" d="M14 15.6C14 13.6118 15.567 12 17.5 12C19.433 12 21 13.6118 21 15.6V35.4C21 37.3882 19.433 39 17.5 39C15.567 39 14 37.3882 14 35.4V15.6ZM17.5 13.8C16.5335 13.8 15.75 14.6059 15.75 15.6V35.4C15.75 36.3941 16.5335 37.2 17.5 37.2C18.4665 37.2 19.25 36.3941 19.25 35.4V15.6C19.25 14.6059 18.4665 13.8 17.5 13.8Z" fill="white"/>
<path fill-rule="evenodd" clip-rule="evenodd" d="M24 24.6C24 22.6118 25.567 21 27.5 21C29.433 21 31 22.6118 31 24.6V35.4C31 37.3882 29.433 39 27.5 39C25.567 39 24 37.3882 24 35.4V24.6ZM27.5 22.8C26.5335 22.8 25.75 23.6059 25.75 24.6V35.4C25.75 36.3941 26.5335 37.2 27.5 37.2C28.4665 37.2 29.25 36.3941 29.25 35.4V24.6C29.25 23.6059 28.4665 22.8 27.5 22.8Z" fill="white"/>
<path fill-rule="evenodd" clip-rule="evenodd" d="M33 15.6C33 13.6118 34.567 12 36.5 12C38.433 12 40 13.6118 40 15.6V35.4C40 37.3882 38.433 39 36.5 39C34.567 39 33 37.3882 33 35.4V15.6ZM36.5 13.8C35.5335 13.8 34.75 14.6059 34.75 15.6V35.4C34.75 36.3941 35.5335 37.2 36.5 37.2C37.4665 37.2 38.25 36.3941 38.25 35.4V15.6C38.25 14.6059 37.4665 13.8 36.5 13.8Z" fill="white"/>
<g clip-path="url(#clip0_2104_3605)">
<path d="M30 47V30H47V47H30ZM40.0984 44.0206C40.1144 44.0538 40.1247 44.0782 40.1375 44.1014C40.3569 44.503 40.6521 44.8369 41.0303 45.0957C41.4844 45.4068 41.9908 45.571 42.5351 45.6301C43.0795 45.6893 43.615 45.6554 44.1383 45.4849C45.1268 45.1628 45.6646 44.4007 45.6512 43.3595C45.6411 42.5858 45.3233 41.9811 44.6903 41.5383C44.3846 41.3244 44.0546 41.1552 43.7154 41.0028C43.3891 40.8562 43.0582 40.7194 42.7374 40.5617C42.5947 40.4915 42.4583 40.3955 42.3429 40.2861C42.0482 40.0067 42.0516 39.3136 42.6409 39.1504C43.0612 39.0339 43.4368 39.1314 43.7251 39.4775C43.8038 39.572 43.8694 39.6776 43.9469 39.7863C44.3563 39.5236 44.7675 39.2597 45.1798 38.995C45.1746 38.9793 45.173 38.9685 45.168 38.9597C44.9034 38.5 44.5567 38.1243 44.0576 37.9184C43.4555 37.67 42.8314 37.6448 42.204 37.7954C41.5859 37.9438 41.1012 38.2838 40.8015 38.8576C40.609 39.2261 40.5547 39.6215 40.583 40.0324C40.6153 40.5022 40.7615 40.9267 41.0691 41.2895C41.3553 41.6271 41.7174 41.8638 42.1115 42.0509C42.5074 42.2389 42.9139 42.4048 43.3103 42.5916C43.4722 42.6679 43.6301 42.761 43.7718 42.8697C44.021 43.0608 44.0969 43.3274 44.0248 43.6273C43.9575 43.908 43.7527 44.0741 43.4901 44.1509C42.831 44.3437 42.2368 44.2288 41.7479 43.7233C41.6179 43.5889 41.512 43.4313 41.3874 43.2749C40.9658 43.5189 40.5358 43.7676 40.0984 44.0206ZM34.457 44.1931C34.7222 44.7454 35.1042 45.1727 35.6622 45.4151C36.39 45.7313 37.1379 45.741 37.8843 45.4881C38.459 45.2935 38.8484 44.8946 39.0635 44.3275C39.1991 43.9701 39.24 43.5966 39.2401 43.2177C39.2411 41.4454 39.2406 39.6732 39.2403 37.901C39.2403 37.8698 39.2367 37.8386 39.2348 37.8076H37.6379V37.9331C37.6379 39.673 37.6385 41.4129 37.6367 43.1529C37.6367 43.2923 37.6282 43.4332 37.608 43.5711C37.575 43.7963 37.4983 44.0121 37.2799 44.1163C36.9387 44.2792 36.5922 44.2806 36.2666 44.0641C36.0993 43.9529 35.9907 43.7863 35.8875 43.6183C35.8454 43.5499 35.8054 43.4803 35.7604 43.4046C35.3254 43.6677 34.8956 43.9279 34.457 44.1931Z" fill="white"/>
<path d="M30 47V30H47V47H30ZM40.0984 44.0206C40.1144 44.0538 40.1247 44.0782 40.1375 44.1014C40.3569 44.503 40.6521 44.8369 41.0303 45.0957C41.4844 45.4068 41.9908 45.571 42.5351 45.6301C43.0795 45.6893 43.615 45.6554 44.1383 45.4849C45.1268 45.1628 45.6646 44.4007 45.6512 43.3595C45.6411 42.5858 45.3233 41.9811 44.6903 41.5383C44.3846 41.3244 44.0546 41.1552 43.7154 41.0028C43.3891 40.8562 43.0582 40.7194 42.7374 40.5617C42.5947 40.4915 42.4583 40.3955 42.3429 40.2861C42.0482 40.0067 42.0516 39.3136 42.6409 39.1504C43.0612 39.0339 43.4368 39.1314 43.7251 39.4775C43.8038 39.572 43.8694 39.6776 43.9469 39.7863C44.3563 39.5236 44.7675 39.2597 45.1798 38.995C45.1746 38.9793 45.173 38.9685 45.168 38.9597C44.9034 38.5 44.5567 38.1243 44.0576 37.9184C43.4555 37.67 42.8314 37.6448 42.204 37.7954C41.5859 37.9438 41.1012 38.2838 40.8015 38.8576C40.609 39.2261 40.5547 39.6215 40.583 40.0324C40.6153 40.5022 40.7615 40.9267 41.0691 41.2895C41.3553 41.6271 41.7174 41.8638 42.1115 42.0509C42.5074 42.2389 42.9139 42.4048 43.3103 42.5916C43.4722 42.6679 43.6301 42.761 43.7718 42.8697C44.021 43.0608 44.0969 43.3274 44.0248 43.6273C43.9575 43.908 43.7527 44.0741 43.4901 44.1509C42.831 44.3437 42.2368 44.2288 41.7479 43.7233C41.6179 43.5889 41.512 43.4313 41.3874 43.2749C40.9658 43.5189 40.5358 43.7676 40.0984 44.0206ZM34.457 44.1931C34.7222 44.7454 35.1042 45.1727 35.6622 45.4151C36.39 45.7313 37.1379 45.741 37.8843 45.4881C38.459 45.2935 38.8484 44.8946 39.0635 44.3275C39.1991 43.9701 39.24 43.5966 39.2401 43.2177C39.2411 41.4454 39.2406 39.6732 39.2403 37.901C39.2403 37.8698 39.2367 37.8386 39.2348 37.8076H37.6379V37.9331C37.6379 39.673 37.6385 41.4129 37.6367 43.1529C37.6367 43.2923 37.6282 43.4332 37.608 43.5711C37.575 43.7963 37.4983 44.0121 37.2799 44.1163C36.9387 44.2792 36.5922 44.2806 36.2666 44.0641C36.0993 43.9529 35.9907 43.7863 35.8875 43.6183C35.8454 43.5499 35.8054 43.4803 35.7604 43.4046C35.3254 43.6677 34.8956 43.9279 34.457 44.1931Z" fill="#C89000"/>
<path d="M40.0981 44.0206C40.5357 43.7676 40.9656 43.5187 41.3872 43.2748C41.5116 43.4311 41.6176 43.5888 41.7477 43.7233C42.2366 44.2288 42.8307 44.3435 43.4899 44.1509C43.7525 44.0741 43.9572 43.908 44.0246 43.6273C44.0965 43.3274 44.0207 43.0609 43.7716 42.8697C43.6297 42.761 43.4718 42.6679 43.31 42.5916C42.9136 42.4046 42.5072 42.2388 42.1113 42.0509C41.7172 41.8638 41.355 41.627 41.0689 41.2895C40.7613 40.9267 40.6151 40.502 40.5828 40.0324C40.5545 39.6216 40.6088 39.226 40.8013 38.8576C41.101 38.2836 41.5856 37.9436 42.2038 37.7954C42.8312 37.6448 43.4553 37.67 44.0574 37.9184C44.5564 38.1243 44.9032 38.5 45.1678 38.9597C45.1728 38.9686 45.1744 38.9793 45.1796 38.995C44.7673 39.2595 44.3562 39.5235 43.9467 39.7863C43.8692 39.6775 43.8036 39.572 43.7249 39.4775C43.4366 39.1313 43.061 39.0339 42.6407 39.1504C42.0514 39.3136 42.0478 40.0067 42.3427 40.2861C42.4581 40.3955 42.5947 40.4915 42.7372 40.5616C43.058 40.7192 43.3889 40.8562 43.7152 41.0028C44.0544 41.1552 44.3842 41.3244 44.6901 41.5383C45.3231 41.9811 45.6409 42.5858 45.6509 43.3595C45.6645 44.4007 45.1267 45.1629 44.1381 45.4848C43.6148 45.6553 43.0793 45.6891 42.5349 45.6301C41.9906 45.571 41.4843 45.4068 41.0301 45.0957C40.6519 44.8368 40.3567 44.503 40.1373 44.1014C40.1245 44.0781 40.1141 44.0537 40.0981 44.0206Z" fill="white"/>
<path d="M34.457 44.1931C34.8954 43.9279 35.3255 43.6677 35.7605 43.4046C35.8054 43.4803 35.8455 43.5499 35.8875 43.6183C35.9909 43.7865 36.0993 43.9529 36.2666 44.0641C36.5921 44.2805 36.9387 44.279 37.28 44.1163C37.4984 44.0121 37.5752 43.7963 37.608 43.5711C37.6282 43.4331 37.6366 43.2923 37.6368 43.1529C37.6386 41.4129 37.6379 39.673 37.6379 37.9331V37.8076H39.2348C39.2367 37.8386 39.2403 37.8698 39.2403 37.901C39.2406 39.6732 39.2409 41.4454 39.2401 43.2177C39.24 43.5966 39.1991 43.9701 39.0635 44.3275C38.8484 44.8946 38.459 45.2935 37.8843 45.4881C37.1379 45.7408 36.3902 45.7311 35.6622 45.4151C35.1042 45.1727 34.7222 44.7456 34.457 44.1931Z" fill="white"/>
</g>
<rect x="29.15" y="29.15" width="18.7" height="18.7" stroke="white" stroke-width="1.7"/>
<defs>
<clipPath id="clip0_2104_3605">
<rect x="30" y="30" width="17" height="17" fill="white"/>
</clipPath>
</defs>
</svg>

<svg width="50" height="50" fill="none" xmlns="http://www.w3.org/2000/svg"><rect x="5" y="23" width="5" height="15" rx="2.5" fill="#4A6BB7"/><rect x="25" y="22" width="5" height="16" rx="2.5" fill="#4A6BB7"/><rect x="15" y="13" width="5" height="25" rx="2.5" fill="#4A6BB7"/><rect x="34" y="13" width="5" height="25" rx="2.5" fill="#4A6BB7"/><path fill-rule="evenodd" clip-rule="evenodd" d="M4 25.579C4 23.602 5.567 22 7.5 22s3.5 1.602 3.5 3.579v9.842C11 37.398 9.433 39 7.5 39S4 37.398 4 35.421V25.58zm3.5-1.79c-.966 0-1.75.802-1.75 1.79v9.842c0 .988.784 1.79 1.75 1.79s1.75-.802 1.75-1.79V25.58c0-.988-.784-1.79-1.75-1.79zM4 16.5a3.5 3.5 0 117 0 3.5 3.5 0 01-7 0zm3.5-1.75a1.75 1.75 0 100 3.5 1.75 1.75 0 000-3.5zM4 7.5a3.5 3.5 0 117 0 3.5 3.5 0 01-7 0zm3.5-1.75a1.75 1.75 0 100 3.5 1.75 1.75 0 000-3.5zM14 7.5a3.5 3.5 0 117 0 3.5 3.5 0 01-7 0zm3.5-1.75a1.75 1.75 0 100 3.5 1.75 1.75 0 000-3.5zM24 7.5a3.5 3.5 0 117 0 3.5 3.5 0 01-7 0zm3.5-1.75a1.75 1.75 0 100 3.5 1.75 1.75 0 000-3.5zM33 7.5a3.5 3.5 0 117 0 3.5 3.5 0 01-7 0zm3.5-1.75a1.75 1.75 0 100 3.5 1.75 1.75 0 000-3.5zM24 16.5a3.5 3.5 0 117 0 3.5 3.5 0 01-7 0zm3.5-1.75a1.75 1.75 0 100 3.5 1.75 1.75 0 000-3.5zM14 15.6c0-1.988 1.567-3.6 3.5-3.6s3.5 1.612 3.5 3.6v19.8c0 1.988-1.567 3.6-3.5 3.6S14 37.388 14 35.4V15.6zm3.5-1.8c-.966 0-1.75.806-1.75 1.8v19.8c0 .994.784 1.8 1.75 1.8s1.75-.806 1.75-1.8V15.6c0-.994-.784-1.8-1.75-1.8zM24 24.6c0-1.988 1.567-3.6 3.5-3.6s3.5 1.612 3.5 3.6v10.8c0 1.988-1.567 3.6-3.5 3.6S24 37.388 24 35.4V24.6zm3.5-1.8c-.966 0-1.75.806-1.75 1.8v10.8c0 .994.784 1.8 1.75 1.8s1.75-.806 1.75-1.8V24.6c0-.994-.784-1.8-1.75-1.8zm5.5-7.2c0-1.988 1.567-3.6 3.5-3.6s3.5 1.612 3.5 3.6v19.8c0 1.988-1.567 3.6-3.5 3.6S33 37.388 33 35.4V15.6zm3.5-1.8c-.967 0-1.75.806-1.75 1.8v19.8c0 .994.783 1.8 1.75 1.8s1.75-.806 1.75-1.8V15.6c0-.994-.783-1.8-1.75-1.8z" fill="#fff"/><g clip-path="url(#clip0_2104_3605)"><path d="M30 47V30h17v17H30zm10.098-2.98c.016.034.027.058.04.081.219.402.514.736.892.995.454.31.96.475 1.505.534a3.78 3.78 0 001.603-.145c.989-.322 1.527-1.084 1.513-2.126-.01-.773-.328-1.378-.96-1.82a5.902 5.902 0 00-.976-.536c-.326-.147-.657-.284-.978-.441a1.625 1.625 0 01-.394-.276c-.295-.28-.291-.972.298-1.136.42-.116.796-.019 1.084.328.079.094.144.2.222.308l1.233-.791c-.005-.016-.007-.026-.012-.035-.265-.46-.611-.836-1.11-1.042-.602-.248-1.227-.273-1.854-.123-.618.149-1.103.489-1.403 1.063-.192.368-.246.764-.218 1.174.032.47.178.895.486 1.258.286.337.648.574 1.042.76.396.189.803.355 1.2.542.161.076.32.169.46.278.25.19.326.457.254.757-.067.281-.272.447-.535.524-.659.193-1.253.078-1.742-.428-.13-.134-.236-.292-.36-.448l-1.29.746zm-5.641.173c.265.552.647.98 1.205 1.222.728.316 1.476.326 2.222.073.575-.194.964-.593 1.18-1.16.135-.358.176-.731.176-1.11V37.9c0-.031-.003-.062-.005-.093h-1.597v.125l-.001 5.22c0 .14-.009.28-.029.418-.033.225-.11.441-.328.545-.341.163-.688.165-1.013-.052-.168-.111-.276-.278-.38-.446-.042-.068-.082-.138-.127-.213l-1.303.788z" fill="#fff"/><path d="M30 47V30h17v17H30zm10.098-2.98c.016.034.027.058.04.081.219.402.514.736.892.995.454.31.96.475 1.505.534a3.78 3.78 0 001.603-.145c.989-.322 1.527-1.084 1.513-2.126-.01-.773-.328-1.378-.96-1.82a5.902 5.902 0 00-.976-.536c-.326-.147-.657-.284-.978-.441a1.625 1.625 0 01-.394-.276c-.295-.28-.291-.972.298-1.136.42-.116.796-.019 1.084.328.079.094.144.2.222.308l1.233-.791c-.005-.016-.007-.026-.012-.035-.265-.46-.611-.836-1.11-1.042-.602-.248-1.227-.273-1.854-.123-.618.149-1.103.489-1.403 1.063-.192.368-.246.764-.218 1.174.032.47.178.895.486 1.258.286.337.648.574 1.042.76.396.189.803.355 1.2.542.161.076.32.169.46.278.25.19.326.457.254.757-.067.281-.272.447-.535.524-.659.193-1.253.078-1.742-.428-.13-.134-.236-.292-.36-.448l-1.29.746zm-5.641.173c.265.552.647.98 1.205 1.222.728.316 1.476.326 2.222.073.575-.194.964-.593 1.18-1.16.135-.358.176-.731.176-1.11V37.9c0-.031-.003-.062-.005-.093h-1.597v.125l-.001 5.22c0 .14-.009.28-.029.418-.033.225-.11.441-.328.545-.341.163-.688.165-1.013-.052-.168-.111-.276-.278-.38-.446-.042-.068-.082-.138-.127-.213l-1.303.788z" fill="#C89000"/><path d="M40.098 44.02l1.29-.745c.124.156.23.314.36.448.489.506 1.083.62 1.742.428.262-.077.467-.243.535-.524.072-.3-.004-.566-.253-.757a2.553 2.553 0 00-.462-.278c-.396-.187-.803-.353-1.199-.541-.394-.187-.756-.424-1.042-.762-.308-.362-.454-.787-.486-1.257-.029-.41.026-.806.218-1.174.3-.574.785-.914 1.403-1.063.627-.15 1.251-.125 1.853.123.5.206.846.582 1.11 1.042.006.009.007.02.013.035l-1.233.791c-.078-.108-.143-.214-.222-.309-.288-.346-.664-.443-1.084-.327-.59.164-.593.857-.298 1.136.115.11.252.206.394.276.321.157.652.294.978.44.34.153.67.322.975.536.633.443.95 1.048.96 1.822.014 1.04-.523 1.803-1.512 2.125a3.791 3.791 0 01-1.603.145 3.226 3.226 0 01-1.505-.534 2.828 2.828 0 01-.893-.995c-.013-.023-.023-.047-.039-.08zm-5.641.173l1.303-.788.128.213c.103.168.211.335.379.446.325.217.672.215 1.013.052.218-.104.295-.32.328-.545.02-.138.029-.279.029-.418.002-1.74 0-3.48 0-5.22v-.125h1.598c.002.03.005.062.005.093v5.317c0 .379-.04.752-.177 1.11-.215.567-.604.965-1.179 1.16-.746.253-1.494.243-2.222-.073-.558-.242-.94-.67-1.205-1.222z" fill="#fff"/></g><path stroke="#fff" stroke-width="1.7" d="M29.15 29.15h18.7v18.7h-18.7z"/><defs><clipPath id="clip0_2104_3605"><path fill="#fff" d="M30 30h17v17H30z"/></clipPath></defs></svg>
